svgs/solid/lira-sign.svg

<svg xmlns="http://www.w3.org/2000/svg" viewBox="0 0 320 512"><!--! Font Awesome Free 6.7.2 by @fontawesome - https://fontawesome.com License - https://fontawesome.com/license/free (Icons: CC BY 4.0, Fonts: SIL OFL 1.1, Code: MIT License) Copyright 2024 Fonticons, Inc. --><path d="M112 160.4c0-35.5 28.8-64.4 64.4-64.4c6.9 0 13.8 1.1 20.4 3.3l81.2 27.1c16.8 5.6 34.9-3.5 40.5-20.2s-3.5-34.9-20.2-40.5L217 38.6c-13.1-4.4-26.8-6.6-40.6-6.6C105.5 32 48 89.5 48 160.4L48 192l-16 0c-17.7 0-32 14.3-32 32s14.3 32 32 32l16 0 0 32-16 0c-17.7 0-32 14.3-32 32s14.3 32 32 32l14 0c-2.2 10.5-6.1 20.6-11.7 29.9L4.6 431.5c-5.9 9.9-6.1 22.2-.4 32.2S20.5 480 32 480l256 0c17.7 0 32-14.3 32-32s-14.3-32-32-32L88.5 416l.7-1.1c11.6-19.3 18.9-40.7 21.6-62.9L224 352c17.7 0 32-14.3 32-32s-14.3-32-32-32l-112 0 0-32 112 0c17.7 0 32-14.3 32-32s-14.3-32-32-32l-112 0 0-31.6z"/></svg>

<svg xmlns="http://www.w3.org/2000/svg" viewBox="0 0 320 512"><!--! Font Awesome Free 6.5.1 by @fontawesome - https://fontawesome.com License - https://fontawesome.com/license/free (Icons: CC BY 4.0, Fonts: SIL OFL 1.1, Code: MIT License) Copyright 2023 Fonticons, Inc. --><path d="M112 160.4c0-35.5 28.8-64.4 64.4-64.4c6.9 0 13.8 1.1 20.4 3.3l81.2 27.1c16.8 5.6 34.9-3.5 40.5-20.2s-3.5-34.9-20.2-40.5L217 38.6c-13.1-4.4-26.8-6.6-40.6-6.6C105.5 32 48 89.5 48 160.4V192H32c-17.7 0-32 14.3-32 32s14.3 32 32 32H48v32H32c-17.7 0-32 14.3-32 32s14.3 32 32 32H46c-2.2 10.5-6.1 20.6-11.7 29.9L4.6 431.5c-5.9 9.9-6.1 22.2-.4 32.2S20.5 480 32 480H288c17.7 0 32-14.3 32-32s-14.3-32-32-32H88.5l.7-1.1c11.6-19.3 18.9-40.7 21.6-62.9H224c17.7 0 32-14.3 32-32s-14.3-32-32-32H112V256H224c17.7 0 32-14.3 32-32s-14.3-32-32-32H112V160.4z"/></svg>
